X: 34615
T: Road North, The
R: waltz
M: 3/4
K: Amixolydian
e>AA//A//A/ e2 f|g>fg e>dB|e>AA//A//A/ e2 f|g>ed B2 A|
e>AA//A//A/ e2 f|g>fg e>dB|A2 a g>ed|B2 A B>AG:|
|:c>AA//A//A/ e2 d|B2 A B>AG|c>AA//A//A/ e>AA//A//A/|g2 e a>ge|
c>AA//A//A/ e2 d|B2 A B>AG|1 c>Ac e>de|g>eg a>ge:|2 c>AA//A//A/ e>AA//A//A/|g>eg a>ge||
|:e>aa a2 g|e>de f>ed|e>aa a2 g|e>de f2 e|
e>aa a2 g|e>de f>ed|g3 e<ge|d>BG B2 A:|

